src/resources/emergency/E010.svg

<svg height="400" viewBox="0 0 200 200" width="400" xmlns="http://www.w3.org/2000/svg"><path d="m0 0h200v200h-200z" fill="#ecece7"/><path d="m5 5h190v190h-190z" fill="#237f52"/><g fill="#ecece7"><path d="m132.73 36.116h47.168v15.723h-47.168zm15.723-15.723h15.723v47.168h-15.723z"/><path d="m56.258 65.861c-18.603.19378-35.268 18.7-30.23 43.116 3.7787 18.7 23.641 42.922 58.231 66.37 34.59-23.544 54.452-47.767 58.231-66.37 5.0383-24.513-11.53-42.922-30.23-43.116-9.5921-.19378-21.607 4.9414-28.001 17.15-6.3948-12.208-18.409-17.343-28.001-17.15zm42.922 14.824-16.278 33.427h20.638l-36.14 42.05 13.952-32.943h-20.056z"/></g></svg>

<?xml version="1.0" encoding="UTF-8" standalone="no"?>
<svg
   height="380"
   viewBox="0 0 190 190"
   width="380"
   version="1.1"
   id="svg4"
   xmlns="http://www.w3.org/2000/svg"
   xmlns:svg="http://www.w3.org/2000/svg">
  <defs
     id="defs4" />
  <path
     d="M 0,0 H 190 V 190 H 0 Z"
     fill="#237f52"
     id="path2" />
  <g
     fill="#ecece7"
     id="g4"
     transform="translate(-5,-5)">
    <path
       d="m 132.73,36.116 h 47.168 V 51.839 H 132.73 Z m 15.723,-15.723 h 15.723 v 47.168 h -15.723 z"
       id="path3" />
    <path
       d="m 56.258,65.861 c -18.603,0.19378 -35.268,18.7 -30.23,43.116 3.7787,18.7 23.641,42.922 58.231,66.37 34.59,-23.544 54.452,-47.767 58.231,-66.37 C 147.5283,84.464 130.96,66.055 112.26,65.861 102.6679,65.66722 90.653,70.8024 84.259,83.011 77.8642,70.803 65.85,65.668 56.258,65.861 Z M 99.18,80.685 82.902,114.112 H 103.54 L 67.4,156.162 81.352,123.219 H 61.296 Z"
       id="path4" />
  </g>
</svg>
